swiss/communes/3851.svg

<?xml version="1.0" encoding="UTF-8" standalone="no"?>
<svg xmlns:dc="http://purl.org/dc/elements/1.1/" xmlns:cc="http://creativecommons.org/ns#" xmlns:rdf="http://www.w3.org/1999/02/22-rdf-syntax-ns#" xmlns:svg="http://www.w3.org/2000/svg" xmlns="http://www.w3.org/2000/svg" viewBox="0 0 226.77333 264.57333" height="264.57333" width="226.77333" xml:space="preserve" id="svg2" version="1.1"><metadata id="metadata8"><rdf:RDF><cc:Work rdf:about=""><dc:format>image/svg+xml</dc:format><dc:type rdf:resource="http://purl.org/dc/dcmitype/StillImage"/></cc:Work></rdf:RDF></metadata><defs id="defs6"/><g transform="matrix(1.3333333,0,0,-1.3333333,0,264.57333)" id="g10"><g transform="scale(0.1)" id="g12"><path id="path14" style="fill:#fddd04;fill-opacity:1;fill-rule:nonzero;stroke:none" d="M 18.4141,1960.61 H 850.391 V 1004.27 H 18.4141 v 956.34"/><path id="path16" style="fill:none;stroke:#231f20;stroke-width:10;stroke-linecap:butt;stroke-linejoin:miter;stroke-miterlimit:10;stroke-dasharray:none;stroke-opacity:1" d="M 18.4141,1960.61 H 850.391 V 1004.27 H 18.4141 Z"/><path id="path18" style="fill:#1c63b7;fill-opacity:1;fill-rule:nonzero;stroke:none" d="M 18.4141,1964.68 H 652.566 V 1202.1 H 18.4141 v 762.58"/><path id="path20" style="fill:none;stroke:#231f20;stroke-width:10;stroke-linecap:butt;stroke-linejoin:miter;stroke-miterlimit:10;stroke-dasharray:none;stroke-opacity:1" d="M 18.4141,1964.68 H 652.566 V 1202.1 H 18.4141 Z"/><path id="path22" style="fill:#1c63b7;fill-opacity:1;fill-rule:nonzero;stroke:none" d="M 1682.37,1960.61 H 850.391 v -956.34 h 831.979 v 956.34"/><path id="path24" style="fill:none;stroke:#231f20;stroke-width:10;stroke-linecap:butt;stroke-linejoin:miter;stroke-miterlimit:10;stroke-dasharray:none;stroke-opacity:1" d="M 1682.37,1960.61 H 850.391 v -956.34 h 831.979 z"/><path id="path26" style="fill:#fddd04;fill-opacity:1;fill-rule:nonzero;stroke:none" d="M 1682.37,1964.68 H 1048.22 V 1202.1 h 634.15 v 762.58"/><path id="path28" style="fill:none;stroke:#231f20;stroke-width:10;stroke-linecap:butt;stroke-linejoin:miter;stroke-miterlimit:10;stroke-dasharray:none;stroke-opacity:1" d="M 1682.37,1964.68 H 1048.22 V 1202.1 h 634.15 z"/><path id="path30" style="fill:#fddd04;fill-opacity:1;fill-rule:nonzero;stroke:none" d="M 1682.37,727.172 V 1004.27 H 850.391 V 33.8516 h 164.049 l 230,76.2384 162.5,121.25 121.25,135 86.25,147.5 67.93,213.332"/><path id="path32" style="fill:none;stroke:#231f20;stroke-width:10;stroke-linecap:butt;stroke-linejoin:miter;stroke-miterlimit:10;stroke-dasharray:none;stroke-opacity:1" d="M 1682.37,727.172 V 1004.27 H 850.391 V 33.8516 h 164.049 l 230,76.2384 162.5,121.25 121.25,135 86.25,147.5 z"/><path id="path34" style="fill:#1c63b7;fill-opacity:1;fill-rule:nonzero;stroke:none" d="M 1682.37,735.129 V 806.43 H 1048.22 V 29.7891 l 139.97,53.7812 258.75,166.5387 113.75,156.813 103.75,232.187 17.93,96.02"/><path id="path36" style="fill:none;stroke:#231f20;stroke-width:10;stroke-linecap:butt;stroke-linejoin:miter;stroke-miterlimit:10;stroke-dasharray:none;stroke-opacity:1" d="M 1682.37,735.129 V 806.43 H 1048.22 V 29.7891 l 139.97,53.7812 258.75,166.5387 113.75,156.813 103.75,232.187 z"/><path id="path38" style="fill:#1c63b7;fill-opacity:1;fill-rule:nonzero;stroke:none" d="M 18.4141,724.469 V 1004.27 H 850.391 V 33.8516 h -154.7 L 493.191,93.8398 250.691,270.09 104.445,473.84 18.4141,724.469"/><path id="path40" style="fill:none;stroke:#231f20;stroke-width:10;stroke-linecap:butt;stroke-linejoin:miter;stroke-miterlimit:10;stroke-dasharray:none;stroke-opacity:1" d="M 18.4141,724.469 V 1004.27 H 850.391 V 33.8516 h -154.7 L 493.191,93.8398 250.691,270.09 104.445,473.84 Z"/><path id="path42" style="fill:#fddd04;fill-opacity:1;fill-rule:nonzero;stroke:none" d="M 18.4141,726.629 V 806.43 H 652.566 V 29.7891 L 541.941,76.2813 315.691,200.27 114.445,437.309 18.4141,726.629"/><path id="path44" style="fill:none;stroke:#231f20;stroke-width:10;stroke-linecap:butt;stroke-linejoin:miter;stroke-miterlimit:10;stroke-dasharray:none;stroke-opacity:1" d="M 18.4141,726.629 V 806.43 H 652.566 V 29.7891 L 541.941,76.2813 315.691,200.27 114.445,437.309 Z"/><path id="path46" style="fill:#231f20;fill-opacity:1;fill-rule:nonzero;stroke:none" d="M 1700.79,1984.25 H 0 V 850.391 C 0,380.73 380.734,0 850.391,0 1320.06,0 1700.79,380.73 1700.79,850.391 V 1984.25 Z m -35,-35 V 850.391 C 1665.79,400.781 1300.01,35 850.391,35 400.781,35 35,400.781 35,850.391 V 1949.25 h 1630.79"/></g></g></svg>

<svg xmlns="http://www.w3.org/2000/svg" height="264.573" width="226.773" xml:space="preserve"><path style="fill:#fddd04;fill-opacity:1;fill-rule:nonzero;stroke:none" d="M18.414 1960.61h831.977v-956.34H18.414v956.34" transform="matrix(.13333 0 0 -.13333 0 264.573)"/><path style="fill:none;stroke:#231f20;stroke-width:10;stroke-linecap:butt;stroke-linejoin:miter;stroke-miterlimit:10;stroke-dasharray:none;stroke-opacity:1" d="M18.414 1960.61h831.977v-956.34H18.414z" transform="matrix(.13333 0 0 -.13333 0 264.573)"/><path style="fill:#1c63b7;fill-opacity:1;fill-rule:nonzero;stroke:none" d="M18.414 1964.68h634.152V1202.1H18.414v762.58" transform="matrix(.13333 0 0 -.13333 0 264.573)"/><path style="fill:none;stroke:#231f20;stroke-width:10;stroke-linecap:butt;stroke-linejoin:miter;stroke-miterlimit:10;stroke-dasharray:none;stroke-opacity:1" d="M18.414 1964.68h634.152V1202.1H18.414z" transform="matrix(.13333 0 0 -.13333 0 264.573)"/><path style="fill:#1c63b7;fill-opacity:1;fill-rule:nonzero;stroke:none" d="M1682.37 1960.61H850.391v-956.34h831.979v956.34" transform="matrix(.13333 0 0 -.13333 0 264.573)"/><path style="fill:none;stroke:#231f20;stroke-width:10;stroke-linecap:butt;stroke-linejoin:miter;stroke-miterlimit:10;stroke-dasharray:none;stroke-opacity:1" d="M1682.37 1960.61H850.391v-956.34h831.979z" transform="matrix(.13333 0 0 -.13333 0 264.573)"/><path style="fill:#fddd04;fill-opacity:1;fill-rule:nonzero;stroke:none" d="M1682.37 1964.68h-634.15V1202.1h634.15v762.58" transform="matrix(.13333 0 0 -.13333 0 264.573)"/><path style="fill:none;stroke:#231f20;stroke-width:10;stroke-linecap:butt;stroke-linejoin:miter;stroke-miterlimit:10;stroke-dasharray:none;stroke-opacity:1" d="M1682.37 1964.68h-634.15V1202.1h634.15z" transform="matrix(.13333 0 0 -.13333 0 264.573)"/><path style="fill:#fddd04;fill-opacity:1;fill-rule:nonzero;stroke:none" d="M1682.37 727.172v277.098H850.391V33.852h164.049l230 76.238 162.5 121.25 121.25 135 86.25 147.5 67.93 213.332" transform="matrix(.13333 0 0 -.13333 0 264.573)"/><path style="fill:none;stroke:#231f20;stroke-width:10;stroke-linecap:butt;stroke-linejoin:miter;stroke-miterlimit:10;stroke-dasharray:none;stroke-opacity:1" d="M1682.37 727.172v277.098H850.391V33.852h164.049l230 76.238 162.5 121.25 121.25 135 86.25 147.5z" transform="matrix(.13333 0 0 -.13333 0 264.573)"/><path style="fill:#1c63b7;fill-opacity:1;fill-rule:nonzero;stroke:none" d="M1682.37 735.129v71.301h-634.15V29.79l139.97 53.78 258.75 166.539 113.75 156.813 103.75 232.187 17.93 96.02" transform="matrix(.13333 0 0 -.13333 0 264.573)"/><path style="fill:none;stroke:#231f20;stroke-width:10;stroke-linecap:butt;stroke-linejoin:miter;stroke-miterlimit:10;stroke-dasharray:none;stroke-opacity:1" d="M1682.37 735.129v71.301h-634.15V29.79l139.97 53.78 258.75 166.539 113.75 156.813 103.75 232.187z" transform="matrix(.13333 0 0 -.13333 0 264.573)"/><path style="fill:#1c63b7;fill-opacity:1;fill-rule:nonzero;stroke:none" d="M18.414 724.469v279.801h831.977V33.852h-154.7l-202.5 59.988-242.5 176.25-146.246 203.75-86.03 250.629" transform="matrix(.13333 0 0 -.13333 0 264.573)"/><path style="fill:none;stroke:#231f20;stroke-width:10;stroke-linecap:butt;stroke-linejoin:miter;stroke-miterlimit:10;stroke-dasharray:none;stroke-opacity:1" d="M18.414 724.469v279.801h831.977V33.852h-154.7l-202.5 59.988-242.5 176.25-146.246 203.75z" transform="matrix(.13333 0 0 -.13333 0 264.573)"/><path style="fill:#fddd04;fill-opacity:1;fill-rule:nonzero;stroke:none" d="M18.414 726.629v79.801h634.152V29.79L541.941 76.28 315.691 200.27 114.445 437.309l-96.03 289.32" transform="matrix(.13333 0 0 -.13333 0 264.573)"/><path style="fill:none;stroke:#231f20;stroke-width:10;stroke-linecap:butt;stroke-linejoin:miter;stroke-miterlimit:10;stroke-dasharray:none;stroke-opacity:1" d="M18.414 726.629v79.801h634.152V29.79L541.941 76.28 315.691 200.27 114.445 437.309z" transform="matrix(.13333 0 0 -.13333 0 264.573)"/><path style="fill:#231f20;fill-opacity:1;fill-rule:nonzero;stroke:none" d="M1700.79 1984.25H0V850.391C0 380.73 380.734 0 850.391 0c469.669 0 850.399 380.73 850.399 850.391V1984.25zm-35-35V850.391C1665.79 400.781 1300.01 35 850.391 35 400.781 35 35 400.781 35 850.391V1949.25h1630.79" transform="matrix(.13333 0 0 -.13333 0 264.573)"/></svg>
